!!!!SEGMENT: pl-sa--75-a-ii-15--002_anonim--adoro-te-devote.krn
!!!cenid: 17xx:1439
!!!COM: Anonim
!!!COM-rismid: pe30004985
!!!CDT:
!!!CNT:
!!!OTL: Adoro te devote
!!!PDT:
!!!AGN:
!!!SMS-siglum: PL-SA
!!!SMS-shelfmark: 75/A II 15
!!!SMS-shelfwork: 002 W
!!!SMS-variant: Organo PL-SA 75/A II 15:11
!!!SMS-altvar: Organo PL-SA 75/A II 15:13
!!!NIFC-rismid: 1001041163
!!!URL-scan: http://bc.bdsandomierz.pl/dlibra/publication/1352/edition/1320/content
!!!ONB-nifc: UWAGA: utwory w zbiorze: 1. Lauda Sion Salvatorem (Aria 1ma), 2. Adoro te devote (Aria 2da)
!!!key:
**kern	**fba	**dynam	**kern	**kern	**dynam	**kern	**dynam	**kern	**text	**kern
*part6	*part6	*part6	*part5	*part4	*part4	*part3	*part3	*part2	*part2	*part1
*staff6	*	*	*staff5	*staff4	*	*staff3	*	*staff2	*staff2	*staff1
*Iorgan	*	*	*Iviola	*Ivioln	*	*Ivioln	*	*Ialto	*	*Ivox
*I"Organo.	*	*	*I"Alto. Viola.	*I"Violino 2do	*	*I"Violino. 1mo	*	*I"Alto. Solo.	*	*I"Canto Solo
*I'org	*	*	*I'a-vla	*I'vl 2	*	*I'vl 1	*	*I'A	*	*I'S
*group3	*	*	*group2	*group2	*	*group2	*	*group1	*	*group1
*clefF4	*	*	*clefC3	*clefG2	*	*clefG2	*	*clefC3	*	*clefC1
*k[f#c#]	*	*	*k[f#c#]	*k[f#c#]	*	*k[f#c#]	*	*k[f#c#]	*	*k[f#c#]
*D:	*	*	*D:	*D:	*	*D:	*	*D:	*	*D:
*M2/2	*	*	*M2/2	*M2/2	*	*M2/2	*	*M2/2	*	*M2/2
*met(c|)	*	*	*met(c|)	*met(c|)	*	*met(c|)	*	*met(c)	*	*met(c|)
!LO:TX:t=P:problem:strona 14 w źródle	!	!	!LO:TX:a:t=Aria 2da Tacet	!	!	!LO:TX:t=P:problem:metrum C przekreślone i kropka w środku	!	!	!	!LO:TX:t=P:problem:brak partii Canto Solo
!LO:TX:a:t=2da Aria	!	!	!	!	!	!	!	!	!	!
8r	.	.	8ryy	8a/	.	8a/	.	8r	.	8ryy
=1	=1	=1	=1	=1	=1	=1	=1	=1	=1	=1
8D\L	.	.	1ryy	8.dd\L	.	8.dd\L	.	00r	.	1ryy
8D\	.	.	.	.	.	.	.	.	.	.
.	.	.	.	16cc#\K	.	16ee\K	.	.	.	.
8D\	.	.	.	8.dd\	.	8.ff#\	.	.	.	.
8D\J	.	.	.	.	.	.	.	.	.	.
.	.	.	.	16ee\Jk	.	16gg\Jk	.	.	.	.
8D\L	.	.	.	8ff#\	.	8aa\	.	.	.	.
8D\	.	.	.	4ff#\	.	4aa\	.	.	.	.
8D\	6 4	.	.	.	.	.	.	.	.	.
8D\J	.	.	.	8gg\	.	8bb\	.	.	.	.
=2	=2	=2	=2	=2	=2	=2	=2	=2	=2	=2
!LO:TX:t=P:problem:mixed beam	!	!	!	!LO:TX:t=P:problem:oznaczenie sekstoli jako dwie "3" z klamrą łukową	!	!LO:TX:t=P:problem:brak oznaczenia trioli:global	!	!	!	!
*	*	*	*	*Xtuplet	*	*Xtuplet	*	*	*	*
8D\L	.	.	1ryy	24ff#\LL	.	24aa\LL	.	.	.	1ryy
.	.	.	.	24ee\	.	24gg\	.	.	.	.
.	.	.	.	24dd\	.	24ff#\JJ	.	.	.	.
!LO:TX:t=P:problem:klamra łukowa	!	!	!	!	!	!	!	!	!	!
8D\	3	.	.	24dd\	.	24ff#\LL	.	.	.	.
.	.	.	.	24ee\	.	24gg\	.	.	.	.
.	.	.	.	24ff#\JJ	.	24aa\JJ	.	.	.	.
8E\	.	.	.	4ee\	.	4gg\	.	.	.	.
8AA/J	.	.	.	.	.	.	.	.	.	.
8D\L	.	.	.	4dd\	.	4ff#\	.	.	.	.
8D\	.	.	.	.	.	.	.	.	.	.
8D\	.	.	.	8r	.	8r	.	.	.	.
8D\J	.	.	.	8dd\	.	8ff#\	.	.	.	.
=3	=3	=3	=3	=3	=3	=3	=3	=3	=3	=3
8D\L	.	.	1ryy	8ff#\L	.	8aa\L	.	.	.	1ryy
8D\	.	.	.	8dd\J	.	8ff#\J	.	.	.	.
8D\	.	.	.	16a\LL	.	16dd\LL	.	.	.	.
.	.	.	.	16a\	.	16dd\	.	.	.	.
8D\J	.	.	.	16cc#\	.	16ee\	.	.	.	.
.	.	.	.	16dd\JJ	.	16ff#\JJ	.	.	.	.
8A\L	6 4	.	.	4.cc#\	.	4ee\	.	.	.	.
8A\	5 3	.	.	.	.	.	.	.	.	.
8A\	.	.	.	.	.	8ee\L	.	.	.	.
8d\J	.	.	.	8dd\	.	8ff#\J	.	.	.	.
=4	=4	=4	=4	=4	=4	=4	=4	=4	=4	=4
8D/L	.	.	1ryy	8ff#\L	.	8aa\L	.	.	.	1ryy
8D/	.	.	.	8dd\J	.	8ff#\J	.	.	.	.
8D/	.	.	.	16a\LL	.	16dd\LL	.	.	.	.
.	.	.	.	16a\	.	16dd\	.	.	.	.
8D/J	.	.	.	16cc#\	.	16ee\	.	.	.	.
.	.	.	.	16dd\JJ	.	16ff#\JJ	.	.	.	.
8A\L	.	.	.	4cc#\	.	4ee\	.	.	.	.
8A\	4	.	.	.	.	.	.	.	.	.
!	!	!	!	!LO:N:vis=8	!	!	!	!	!	!
8A\	3	.	.	16r	.	16r	.	.	.	.
.	.	.	.	16cc#\LL	.	16ee\LL	.	.	.	.
8A\J	.	.	.	16a\	.	16cc#\	.	.	.	.
.	.	.	.	16b\JJ	.	16dd\JJ	.	.	.	.
!	!	!	!	!LO:LB:g=original	!	!LO:LB:g=original	!	!	!	!
=5	=5	=5	=5	=5	=5	=5	=5	=5	=5	=5
8AA/L	.	.	1ryy	16.cc#\LL	.	16.ee\LL	.	00r	.	1ryy
.	.	.	.	32dd\K	.	32ff#\K	.	.	.	.
8AA/	.	.	.	16.a\	.	16.cc#\	.	.	.	.
.	.	.	.	32b\JJk	.	32dd\JJk	.	.	.	.
8AA/	.	.	.	16.cc#\LL	.	16.ee\LL	.	.	.	.
.	.	.	.	32dd\K	.	32ff#\K	.	.	.	.
8AA/J	.	.	.	16.a\	.	16.cc#\	.	.	.	.
.	.	.	.	32b\JJk	.	32dd\JJk	.	.	.	.
!LO:LB:g=original	!	!	!	!	!	!	!	!	!	!
8AA/L	.	.	.	16cc#\LL	.	16ee\LL	.	.	.	.
.	.	.	.	16dd\JJ	.	16ff#\JJ	.	.	.	.
8AA/	7	.	.	4ee\	.	4gg\	.	.	.	.
8AA/	.	.	.	.	.	.	.	.	.	.
8AA/J	.	.	.	8cc#\	.	8ee\	.	.	.	.
=6	=6	=6	=6	=6	=6	=6	=6	=6	=6	=6
8D/L	.	.	1ryy	8dd\L	.	8.ff#\L	.	.	.	1ryy
8GG/	.	.	.	16ee\L	.	.	.	.	.	.
.	.	.	.	16cc#\JJ	.	32gg\LL	.	.	.	.
.	.	.	.	.	.	32ee\JJJ	.	.	.	.
8AA/	.	.	.	4cc#\	.	4ee\	.	.	.	.
8AA/J	.	.	.	.	.	.	.	.	.	.
8D\L	.	.	.	4.dd\	.	4.dd\	.	.	.	.
8D\	.	.	.	.	.	.	.	.	.	.
8D\	6 4	.	.	.	.	.	.	.	.	.
8D\J	.	.	.	8g/	.	8b\	.	.	.	.
=7	=7	=7	=7	=7	=7	=7	=7	=7	=7	=7
8D\L	.	.	1ryy	16.f#/LL	.	16.a/LL	.	.	.	1ryy
.	.	.	.	32g/K	.	32b/K	.	.	.	.
8D\	.	.	.	16.d/	.	16.f#/	.	.	.	.
.	.	.	.	32e/JJk	.	32g/JJk	.	.	.	.
8D\	.	.	.	16.f#/LL	.	16.a/LL	.	.	.	.
.	.	.	.	32g/K	.	32b/K	.	.	.	.
8D\J	.	.	.	16.d/	.	16.f#/	.	.	.	.
.	.	.	.	32e/JJk	.	32g/JJk	.	.	.	.
8D/L	.	.	.	8f#/	.	8a/	.	.	.	.
!	!	!	!	!LO:N:vis=4	!	!LO:N:vis=4	!	!	!	!
8C#X/	.	.	.	4.e/	.	4.g/	.	.	.	.
8C#/	.	.	.	.	.	.	.	.	.	.
8AA/J	.	.	.	.	.	.	.	.	.	.
=8	=8	=8	=8	=8	=8	=8	=8	=8	=8	=8
8D/L	.	.	1ryy	16.d/LL	.	16.f#/LL	.	.	.	1ryy
.	.	.	.	32e/K	.	32g/K	.	.	.	.
8DD/J	.	.	.	16.f#/	.	16.a/	.	.	.	.
.	.	.	.	32g/JJk	.	32b/JJk	.	.	.	.
8r	.	.	.	16.a\LL	.	16.cc#\LL	.	.	.	.
.	.	.	.	32b\K	.	32dd\K	.	.	.	.
8A\	.	.	.	16.cc#\	.	16.ee\	.	.	.	.
.	.	.	.	32dd\JJk	.	32ff#\JJk	.	.	.	.
8AA/L	.	.	.	8ee\	.	8gg\	.	.	.	.
8AA/	4	.	.	4ee\	.	4gg\	.	.	.	.
8AA/	.	.	.	.	.	.	.	.	.	.
!	!	!	!	!LO:LB:g=original	!	!LO:LB:g=original	!	!	!	!
8AA/J	.	.	.	16dd\LL	.	16ff#\LL	.	.	.	.
.	.	.	.	16cc#\JJ	.	16ee\JJ	.	.	.	.
=9	=9	=9	=9	=9	=9	=9	=9	=9	=9	=9
8D/L	.	.	1ryy	16a/LL	.	16ff#\LL	.	2r	.	1ryy
.	.	.	.	16f#/	.	16dd\	.	.	.	.
8GG/	6 5	.	.	16g/	.	16ee\	.	.	.	.
.	.	.	.	16e/JJ	.	16dd\JJ	.	.	.	.
8AA/	.	.	.	4e/	.	4cc#\	.	.	.	.
8AA/J	.	.	.	.	.	.	.	.	.	.
4DD/	.	.	.	4d/	.	4dd\	.	4r	.	.
!	!	!	!	!	!LO:DY:a:t=pia&colon;	!	!	!	!	!
8r	.	.	.	8r	p	8r	.	8r	.	.
!	!	!	!	!	!	!	!	!LO:TX:t=P:problem:all\right:global	!	!
8D/	.	.	.	8a/	.	8a/	.	8d\	A-	.
=10	=10	=10	=10	=10	=10	=10	=10	=10	=10	=10
8D\L	.	.	1ryy	8.dd\L	.	8.dd\L	.	8.d\L	-dor-	1ryy
8D\	.	.	.	.	.	.	.	.	.	.
.	.	.	.	16cc#\K	.	16ee\K	.	16e\Jk	.	.
8D\	.	.	.	8.dd\	.	8.ff#\	.	8.f#\L	-o-	.
8D\J	.	.	.	.	.	.	.	.	.	.
.	.	.	.	16ee\Jk	.	16gg\Jk	.	16g\Jk	.	.
!LO:LB:g=original	!	!	!	!	!	!	!	!	!	!
8D\L	.	.	.	8ff#\	.	8aa\	.	4a\	-te	.
8D\	.	.	.	4ff#\	.	4aa\	.	.	.	.
8D\	.	.	.	.	.	.	.	8r	.	.
8D\J	.	.	.	8gg\	.	8bb\	.	8a\	de-	.
=11	=11	=11	=11	=11	=11	=11	=11	=11	=11	=11
8D\L	.	.	1ryy	8ff#\L	.	8aa\L	.	8a\	.	1ryy
8D\	5	.	.	16ee\L	.	16gg\L	.	16g\LL	.	.
.	.	.	.	16dd\JJ	.	16ff#\JJ	.	16f#\JJ	.	.
8D\	.	.	.	4ee\	.	4gg\	.	4g\	-vo-	.
8D\J	.	.	.	.	.	.	.	.	.	.
8D\L	.	.	.	4dd\	.	4ff#\	.	4f#\	-te	.
8D\	5	.	.	.	.	.	.	.	.	.
8D\	.	.	.	8r	.	8r	.	8r	.	.
8D\J	.	.	.	8dd\	.	8ff#\	.	8f#\	a-	.
=12	=12	=12	=12	=12	=12	=12	=12	=12	=12	=12
8D\L	.	.	1ryy	8ff#\L	.	8aa\L	.	8.a\L	-do-	1ryy
8D\	.	.	.	8dd\J	.	8ff#\J	.	.	.	.
.	.	.	.	.	.	.	.	16f#\Jk	-ro	.
8D\	.	.	.	16a\LL	.	16dd\LL	.	8d\	te	.
.	.	.	.	16a\	.	16dd\	.	.	.	.
8D\J	.	.	.	16cc#\	.	16ee\	.	16e\LL	de-	.
.	.	.	.	16dd\JJ	.	16ff#\JJ	.	16f#\JJ	-vo-	.
8A\L	.	.	.	8dd\L	.	8ff#\L	.	8f#\	-te	.
8A\	6 4	.	.	8cc#\J	.	8ee\J	.	8r	.	.
!	!	!	!	!	!	!	!	!LO:N:vis=8	!	!
8A\	5 3	.	.	8r	.	8r	.	4e\	a-	.
8A\J	.	.	.	8cc#\	.	8ee\	.	.	.	.
=13	=13	=13	=13	=13	=13	=13	=13	=13	=13	=13
8D\L	.	.	1ryy	8ff#\L	.	8aa\L	.	8a\	-do-	1ryy
8D\	.	.	.	8dd\J	.	8ff#\J	.	8f#\	-ro	.
8D\	.	.	.	16a\LL	.	16dd\LL	.	8d\L	te	.
.	.	.	.	16a\	.	16dd\	.	.	.	.
8D\J	.	.	.	16cc#\	.	16ee\	.	16e\L	de-	.
!	!	!	!	!	!	!	!	!LO:SIC:v:custos c	!	!
.	.	.	.	16dd\JJ	.	16ff#\JJ	.	16f#\JJ	.	.
!	!	!	!	!	!	!	!LO:DY:a:t=pia&colon;	!LO:LB:g=original	!	!
8A\L	.	.	.	8dd\	.	8ff#\	p	8f#\	-vo-	.
!	!	!	!	!LO:LB:g=original	!	!	!	!	!	!
8A\	6 4	.	.	4cc#\	.	4ee\	.	4e\	-te	.
8A\	5 3	.	.	.	.	.	.	.	.	.
!	!	!	!	!	!	!LO:LB:g=original	!	!	!	!
8A\J	.	.	.	16dd\LL	.	16ff#\LL	.	16f#\LL	la-	.
.	.	.	.	16b\JJ	.	16dd\JJ	.	16d\JJ	.	.
=14	=14	=14	=14	=14	=14	=14	=14	=14	=14	=14
8A\L	.	.	1ryy	16a/LL	.	8.ee\L	.	16c#\LL	.	1ryy
.	.	.	.	16b/JJ	.	.	.	16d\JJ	.	.
8A\	.	.	.	4cc#\	.	.	.	4e\	.	.
.	.	.	.	.	.	16cc#\K	.	.	.	.
8A\	6 4	.	.	.	.	8.dd\	.	.	.	.
8A\J	.	.	.	16dd\LL	.	.	.	16f#\LL	.	.
.	.	.	.	16b\JJ	.	16b\Jk	.	16e\JJ	.	.
!	!	!	!	!	!	!	!	!LO:SIC:v:s=8.e	!	!
!	!	!	!	!	!	!	!	!LO:TX:t=♯	!	!
8A\L	.	.	.	8.cc#\L	.	8.ee\L	.	8.e#y\L	.	.
8A\	.	.	.	.	.	.	.	.	.	.
.	.	.	.	16a\K	.	16cc#\K	.	16c#\K	.	.
8E\	.	.	.	8.b\	.	8.dd\	.	8.d\	.	.
!LO:TX:t=P:problem:znak # z basu cyforwanego wpisany koło nuty	!	!	!	!	!	!	!	!	!	!
8E\J	7 #	.	.	.	.	.	.	.	.	.
.	.	.	.	16g#X\Jk	.	16b\Jk	.	16B\Jk	.	.
=15	=15	=15	=15	=15	=15	=15	=15	=15	=15	=15
8A\L	.	.	1ryy	16a/LL	.	16cc#\LL	.	16c#\LL	.	1ryy
.	.	.	.	16b/JJ	.	16dd\JJ	.	16d\J	.	.
8A\	6 4	.	.	4cc#\	.	4ee\	.	8e\J	.	.
8A\	.	.	.	.	.	.	.	8e\L	-tens	.
8A\J	.	.	.	16dd\LL	.	16ff#\LL	.	16f#\L	.	.
.	.	.	.	16b\JJ	.	16dd\JJ	.	16d\JJ	.	.
8A\L	.	.	.	8.cc#\L	.	16ee\LL	.	8.e\L	De-	.
.	.	.	.	.	.	16aa\	.	.	.	.
8A\	.	.	.	.	.	16ee\	.	.	.	.
.	.	.	.	16a\Jk	.	16cc#\JJ	.	16c#\Jk	.	.
8E\	7 #	.	.	4b\	.	4dd\	.	4d\	-i-	.
8E\J	.	.	.	.	.	.	.	.	.	.
!LO:LB:g=original	!	!	!	!	!	!	!	!	!	!
=16	=16	=16	=16	=16	=16	=16	=16	=16	=16	=16
8AA/L	.	.	1ryy	4a/	.	4cc#\	.	4c#\	-tas	1ryy
8AA/	.	.	.	.	.	.	.	.	.	.
8AA/	.	.	.	8r	.	8r	.	8r	.	.
8AA/J	.	.	.	8cc#\	.	8ee\	.	8e\	a-	.
8D/L	.	.	.	8a\L	.	8ff#\L	.	8f#\	-do-	.
8D/	.	f	.	8dd\	.	8ff#\J	.	8f#\	-ra-	.
8BB/	.	.	.	8dd\	.	8gg#X\L	.	8g#X\	-te	.
8BB/J	.	.	.	8dd\J	.	16ff#\L	.	16f#\LL	de-	.
.	.	.	.	.	.	16ee\JJ	.	16e\JJ	.	.
=17	=17	=17	=17	=17	=17	=17	=17	=17	=17	=17
8C#/L	.	.	1ryy	8ee\L	.	4aa\	.	4a\	-vo-	1ryy
8C#/	.	.	.	8ee\	.	.	.	.	.	.
8AA/	.	.	.	8cc#\	.	16aa\LL	.	16a\LL	.	.
!	!	!	!	!	!	!	!	!LO:SIC:v:s=16g#	!	!
.	.	.	.	.	.	16gg#X\	.	16g\	.	.
8AA/J	.	.	.	8cc#\J	.	16ff#\	.	16f#\	.	.
.	.	.	.	.	.	16ee\JJ	.	16e\JJ	.	.
8D/L	.	.	.	8a\L	.	8.ff#\L	.	8.f#\L	.	.
8D/	.	.	.	8dd\	.	.	.	.	.	.
.	.	.	.	.	.	16aa\K	.	16a\Jk	.	.
!	!	!	!	!	!	!	!	!LO:SIC:v:s=8.g#	!	!
8BB/	.	.	.	8dd\	.	8.gg#X\	.	8.g\L	.	.
8E/J	.	.	.	8dd\J	.	.	.	.	.	.
.	.	.	.	.	.	16bb\Jk	.	16b\Jk	.	.
!	!	!	!	!	!	!	!	!LO:LB:g=original	!	!
=18	=18	=18	=18	=18	=18	=18	=18	=18	=18	=18
!LO:TX:t=P:problem:mixed beam	!	!	!	!	!	!	!	!	!	!
8AA/L	.	.	1ryy	8cc#\L	.	8.aa\L	.	8.a\L	.	1ryy
8A\	.	.	.	8cc#\	.	.	.	.	.	.
.	.	.	.	.	.	16ccc#\K	.	16cc#\Jk	.	.
8G#X\	.	.	.	8ee\	.	8.bb\	.	8.b\L	.	.
8E\J	.	.	.	8ee\J	.	.	.	.	.	.
.	.	.	.	.	.	16ddd\Jk	.	16dd\Jk	.	.
!LO:TX:t=P:problem:mixed beam	!	!	!	!	!	!LO:LB:g=original	!	!	!	!
8AA/L	.	.	.	4aa\	.	4ccc#\	.	4a\	.	.
8A\J	.	.	.	.	.	.	.	.	.	.
8r	.	.	.	16aa\LL	.	16ccc#\LL	.	16cc#\LL	.	.
.	.	.	.	16gg#X\JJ	.	16bb\	.	16b\	.	.
!	!	!	!	!LO:LB:g=original	!	!	!	!	!	!
8A\	.	.	.	16aa\LL	.	16ccc#\	.	16cc#\	.	.
.	.	.	.	16bb\JJ	.	16ddd\JJ	.	16dd\JJ	.	.
=19	=19	=19	=19	=19	=19	=19	=19	=19	=19	=19
!LO:TX:t=P:problem:mixed beam	!	!	!	!	!	!	!	!	!	!
8A\L	.	.	1ryy	4aa\	.	4ccc#\	.	4a\	.	1ryy
8AA/J	.	.	.	.	.	.	.	.	.	.
8r	.	.	.	16aa\LL	.	16ccc#\LL	.	16cc#\LL	.	.
.	.	.	.	16gg#X\	.	16bb\	.	16b\	.	.
8A\	.	.	.	16aa\	.	16ccc#\	.	16cc#\	.	.
.	.	.	.	16bb\JJ	.	16ddd\JJ	.	16dd\JJ	.	.
4A\	.	.	.	8aa\L	.	8ccc#\L	.	8a\L	.	.
.	.	.	.	16gg#X\L	.	16bb\L	.	16a\L	.	.
.	.	.	.	16aa\JJ	.	16ccc#\JJ	.	16b\JJ	.	.
8D\L	.	.	.	8bb\L	.	8ddd\L	.	8dd\	.	.
8E\J	.	.	.	8gg#X\J	.	8bb\J	.	8b\	-te	.
=20	=20	=20	=20	=20	=20	=20	=20	=20	=20	=20
8AA/L	.	.	1ryy	8ee\L	.	8ccc#\L	.	8cc#\L	la-	1ryy
8BB/	.	.	.	8dd\	.	8gg#X\	.	8g#X\J	.	.
8C#/	.	.	.	8cc#\	.	8aa\	.	8a\L	-tens	.
8D/J	.	.	.	8ff#\J	.	8ddd\J	.	8dd\J	.	.
!	!	!	!	!	!	!	!	!LO:N:vis=4	!	!
4E\	6 4	.	.	4aa\	.	4ccc#\	.	4.cc#\	De-	.
4E\	x #	.	.	4gg#X\	.	4bb\	.	.	.	.
.	.	.	.	.	.	.	.	16b\	-i-	.
.	.	.	.	.	.	.	.	16a\	-tas	.
=21	=21	=21	=21	=21	=21	=21	=21	=21	=21	=21
8AA/L	.	.	1ryy	4aa\	.	4aa\	.	4a\	a-	1ryy
8AA/J	.	.	.	.	.	.	.	.	.	.
!LO:LB:g=original	!	!	!	!	!	!	!	!	!	!
8C#/L	.	.	.	16aa\LL	.	16aa\LL	.	16a\LL	.	.
.	.	.	.	16gg\	.	16gg#X\	.	16g\	.	.
8C#/J	.	.	.	16ff#\	.	16ff#\	.	16f#\	.	.
.	.	.	.	16ee\JJ	.	16ee\JJ	.	16e\JJ	.	.
8D/L	6	.	.	4ff#\	.	4ff#\	.	4f#\	-do-	.
8D/	5	.	.	.	.	.	.	.	.	.
8A/	4	.	.	16ff#\LL	.	16ff#\LL	.	16f#\LL	.	.
.	.	.	.	16ee\	.	16ee\	.	16e\	.	.
8A/J	3	.	.	16dd\	.	16dd\	.	16d\	.	.
.	.	.	.	16cc#\JJ	.	16cc#\JJ	.	16c#\JJ	.	.
!	!	!	!	!	!	!	!	!LO:LB:g=original	!	!
=22	=22	=22	=22	=22	=22	=22	=22	=22	=22	=22
8B\L	7	.	1ryy	4dd\	.	4dd\	.	4d\	.	1ryy
8B\	.	.	.	.	.	.	.	.	.	.
8G#X\	.	.	.	16dd\LL	.	16dd\LL	.	16d\LL	.	.
.	.	.	.	16ff#\	.	16ff#\	.	16f#\	.	.
8E\J	.	.	.	16ee\	.	16ee\	.	16e\	.	.
.	.	.	.	16dd\JJ	.	16dd\JJ	.	16d\JJ	.	.
8AA/L	.	.	.	8cc#\L	.	8cc#\L	.	8c#\	.	.
8BB/	.	.	.	8dd\	.	8dd\	.	8d\	.	.
8C#/	.	.	.	8ee\	.	8ee\	.	8e\	.	.
8D/J	.	.	.	8ff#\J	.	8ff#\J	.	8f#\	.	.
=23	=23	=23	=23	=23	=23	=23	=23	=23	=23	=23
!	!	!	!	!	!LO:DY:a:t=for&colon;	!	!	!	!	!
4E\	6 4	.	1ryy	4cc#\	p	4cc#\	.	4c#/	.	1ryy
4E\	#	.	.	4b\	.	4b\	.	8.B/	.	.
.	.	.	.	.	.	.	.	16B/	.	.
!	!	!	!	!LO:LB:g=original	!	!	!	!	!	!
8A\L	.	.	.	4a\	.	4a\	.	4A/	.	.
8E\J	.	.	.	.	.	.	.	.	.	.
4AA/	.	.	.	8r	.	8r	.	4r	.	.
!	!	!	!	!	!	!LO:LB:g=original	!	!	!	!
.	.	.	.	8e/	.	8e/	.	.	.	.
=24	=24	=24	=24	=24	=24	=24	=24	=24	=24	=24
8AA/L	.	.	1ryy	8.a/L	.	8.a\L	.	0r	.	1ryy
!	!	!LO:DY:a:t=for&colon;	!	!	!	!	!	!	!	!
8AA/	.	f	.	.	.	.	.	.	.	.
.	.	.	.	16g#X/K	.	16b\K	.	.	.	.
8AA/	.	.	.	8.a/	.	8.cc#\	.	.	.	.
8AA/J	.	.	.	.	.	.	.	.	.	.
.	.	.	.	16b/Jk	.	16dd\Jk	.	.	.	.
8AA/L	.	.	.	8cc#\	.	8ee\	.	.	.	.
8AA/	6 4	.	.	4cc#\	.	4ee\	.	.	.	.
8AA/	.	.	.	.	.	.	.	.	.	.
8AA/J	.	.	.	8dd\	.	8ff#\	.	.	.	.
=25	=25	=25	=25	=25	=25	=25	=25	=25	=25	=25
!	!	!	!	!LO:TX:t=P:problem:brak oznaczenia trioli:global	!	!	!	!	!	!
8AA/L	x 3	.	1ryy	24cc#\LL	.	24ee\LL	.	.	.	1ryy
.	.	.	.	24b\	.	24dd\	.	.	.	.
.	.	.	.	24a\JJ	.	24cc#\JJ	.	.	.	.
8AA/	.	.	.	24a\LL	.	24cc#\LL	.	.	.	.
.	.	.	.	24b\	.	24dd\	.	.	.	.
.	.	.	.	24cc#\JJ	.	24ee\JJ	.	.	.	.
8AA/	4 2	.	.	4b/	.	4dd\	.	.	.	.
8GG#X/J	.	.	.	.	.	.	.	.	.	.
8AA/L	.	.	.	4a/	.	4cc#\	.	.	.	.
8AA/	.	.	.	.	.	.	.	.	.	.
8AA/	.	.	.	16r	.	16r	.	.	.	.
.	.	.	.	16cc#\LL	.	16ee\LL	.	.	.	.
8AA/J	.	.	.	16a\	.	16cc#\	.	.	.	.
.	.	.	.	16b\JJ	.	16dd\JJ	.	.	.	.
=26	=26	=26	=26	=26	=26	=26	=26	=26	=26	=26
!LO:TX:t=P:problem:mixed beam	!	!	!	!	!	!	!	!	!	!
8AA/L	.	.	1ryy	16.cc#\LL	.	16.ee\LL	.	1r	.	1ryy
.	.	.	.	32dd\K	.	32ff#\K	.	.	.	.
8A\	.	.	.	16.a\	.	16.cc#\	.	.	.	.
.	.	.	.	32b\JJk	.	32dd\JJk	.	.	.	.
8A\	.	.	.	16.cc#\LL	.	16.ee\LL	.	.	.	.
.	.	.	.	32dd\K	.	32ff#\K	.	.	.	.
8A\J	.	.	.	16.a\	.	16.cc#\	.	.	.	.
.	.	.	.	32b\JJk	.	32dd\JJk	.	.	.	.
8D/L	.	.	.	8dd\	.	8ff#\	.	.	.	.
8D/J	.	.	.	4dd\	.	4ff#\	.	.	.	.
!LO:LB:g=original	!	!	!	!	!	!	!	!	!	!
8GG#X/L	4	.	.	.	.	.	.	.	.	.
8GG#/J	6	.	.	16dd\LL	.	16ee\LL	.	.	.	.
.	.	.	.	16cc#\JJ	.	16dd\JJ	.	.	.	.
=27	=27	=27	=27	=27	=27	=27	=27	=27	=27	=27
8AA/L	.	.	1ryy	16ee\LL	.	32cc#\LLL	.	2r	.	1ryy
.	.	.	.	.	.	32b\JJ	.	.	.	.
.	.	.	.	16dd\J	.	8.a\J	.	.	.	.
8AA/	.	.	.	8cc#\J	.	.	.	.	.	.
8E/	7	.	.	16dd\LL	.	32b\LLL	.	.	.	.
.	.	.	.	.	.	32a\JJ	.	.	.	.
!	!	!	!	!	!	!LO:TX:t=♯	!	!	!	!
.	.	.	.	16cc#\J	.	8.g#y\J	.	.	.	.
8EE/J	.	.	.	8b\J	.	.	.	.	.	.
4AA/	.	.	.	4a/	.	4a/	.	4r	.	.
!	!	!LO:DY:a:t=piano	!	!LO:LB:g=original	!	!	!	!	!	!
4r	.	p	.	8r	.	8r	.	8r	.	.
!	!	!	!	!	!	!	!LO:DY:a:t=pia&colon;	!	!	!
.	.	.	.	8a/	.	8a/	p	8A/	.	.
!	!	!	!	!	!	!LO:LB:g=original	!	!	!	!
=28	=28	=28	=28	=28	=28	=28	=28	=28	=28	=28
8D\L	.	.	1ryy	8.dd\L	.	8.dd\L	.	8.d\L	.	1ryy
8D\	.	.	.	.	.	.	.	.	.	.
.	.	.	.	16cc#\K	.	16ee\K	.	16e\Jk	.	.
8D\	.	.	.	8.dd\	.	8.ff#\	.	8.f#\L	.	.
8D\J	.	.	.	.	.	.	.	.	.	.
.	.	.	.	16ee\Jk	.	16gg\Jk	.	16g\Jk	.	.
8D\L	.	.	.	8ff#\	.	8aa\	.	4a\	.	.
8D\	6 4	.	.	4ff#\	.	4aa\	.	.	.	.
8D\	.	.	.	.	.	.	.	8r	.	.
8D\J	.	.	.	8gg\	.	8bb\	.	8b\	.	.
=29	=29	=29	=29	=29	=29	=29	=29	=29	=29	=29
!	!	!	!	!	!	!	!	!LO:N:vis=4	!	!
8D\L	.	.	1ryy	8ff#\L	.	8aa\L	.	8a\	.	1ryy
8D\	.	.	.	16ee\L	.	16gg\L	.	16g\LL	.	.
.	.	.	.	16dd\JJ	.	16ff#\JJ	.	16f#\JJ	.	.
8D\	4 2	.	.	4ee\	.	4gg\	.	4g\	.	.
8C#\J	.	.	.	.	.	.	.	.	.	.
!	!	!	!	!	!	!	!	!LO:SIC:v:custos B	!	!
8D\L	.	.	.	4dd\	.	4ff#\	.	4f#\	.	.
8D\	.	.	.	.	.	.	.	.	.	.
!	!	!	!	!	!	!	!	!LO:LB:g=original	!	!
8D\	.	.	.	8r	.	8r	.	8r	.	.
8D\J	.	.	.	8ff#\	.	8aa\	.	8a\	.	.
=30	=30	=30	=30	=30	=30	=30	=30	=30	=30	=30
4D\	.	.	1ryy	8ff#\L	.	16.bb\LL	.	8a\L	.	1ryy
.	.	.	.	.	.	32aa\K	.	.	.	.
.	.	.	.	8aa\	.	16.gg\	.	8f#\J	.	.
.	.	.	.	.	.	32ff#\JJk	.	.	.	.
8r	.	.	.	8aa\	.	8dd\L	.	8d\	.	.
8D\	.	.	.	8ff#\	.	8ff#\J	.	16e\LL	.	.
.	.	.	.	.	.	.	.	16f#\JJ	.	.
8D/L	4 2	.	.	16ee\L	.	16gg\LL	.	16g\LL	.	.
.	.	.	.	16dd\JJ	.	16ff#\JJ	.	16f#\JJ	.	.
8C#/	.	.	.	4ee\	.	4gg\	.	8g\	.	.
8C#/	.	.	.	.	.	.	.	8r	.	.
8BB/J	.	.	.	[8ee\	.	8gg\	.	8g\	.	.
=31	=31	=31	=31	=31	=31	=31	=31	=31	=31	=31
8AA/L	7	.	1ryy	8ee\]	.	16.aa\LL	.	8g\L	.	1ryy
.	.	.	.	.	.	32gg\K	.	.	.	.
8AA/	.	.	.	4gg\	.	16.ff#\	.	8e\J	.	.
.	.	.	.	.	.	32ee\JJk	.	.	.	.
8AA/	.	.	.	.	.	8cc#\L	.	8c#\	.	.
8AA/J	.	.	.	8ee\	.	16dd\L	.	16d\LL	.	.
.	.	.	.	.	.	16ee\JJ	.	16e\JJ	.	.
8D\L	.	.	.	8a/	.	16ff#\LL	.	8.f#\L	.	.
.	.	.	.	.	.	16aa\	.	.	.	.
8D\	.	.	.	4dd\	.	16gg\	.	.	.	.
.	.	.	.	.	.	16ff#\JJ	.	16a\Jk	.	.
8E\	7	.	.	.	.	16gg\LL	.	8.g\L	.	.
.	.	.	.	.	.	16bb\	.	.	.	.
8E\J	.	.	.	[8dd\	.	16aa\	.	.	.	.
.	.	.	.	.	.	16gg\JJ	.	16b\Jk	.	.
!LO:LB:g=original	!	!	!	!	!	!	!	!	!	!
=32	=32	=32	=32	=32	=32	=32	=32	=32	=32	=32
8F#\L	.	.	1ryy	8dd\]	.	16aa\LL	.	8.a\L	.	1ryy
.	.	.	.	.	.	16cccn\	.	.	.	.
8F#\	.	.	.	4dd\	.	16bb\	.	.	.	.
.	.	.	.	.	.	16aa\JJ	.	16cc#\Jk	.	.
8G\	.	.	.	.	.	16bb\LL	.	16b\LL	.	.
.	.	.	.	.	.	16aa\JJ	.	16a\	.	.
!	!	!	!	!	!	!LO:LB:g=original	!	!	!	!
8D\J	.	.	.	8dd\	.	16gg\LL	.	16g\	.	.
.	.	.	.	.	.	16ff#\JJ	.	16f#\JJ	.	.
8E\L	.	.	.	8b\L	.	16gg\LL	.	8.g\L	.	.
.	.	.	.	.	.	16bb\	.	.	.	.
8E\	.	.	.	8b\	.	16aa\	.	.	.	.
.	.	.	.	.	.	16gg\JJ	.	16b\Jk	.	.
8A\	.	.	.	8cc#\	.	16aa\LL	.	16a\LL	.	.
.	.	.	.	.	.	16gg\	.	16g\	.	.
8A\J	.	.	.	8cc#\J	.	16ff#\	.	16f#\	.	.
.	.	.	.	.	.	16ee\JJ	.	16e\JJ	.	.
!	!	!	!	!LO:LB:g=original	!	!	!	!	!	!
=33	=33	=33	=33	=33	=33	=33	=33	=33	=33	=33
8D\L	.	.	1ryy	8a/L	.	8.ff#\L	.	8.f#\L	.	1ryy
8D\	.	.	.	8a/	.	.	.	.	.	.
.	.	.	.	.	.	16aa\Jk	.	16a\Jk	.	.
!	!	!	!	!	!	!	!	!LO:LB:g=original	!	!
8G\	.	.	.	8b/	.	16gg\LL	.	16g\LL	.	.
.	.	.	.	.	.	16ff#\	.	16f#\	.	.
8G\J	.	.	.	8b/J	.	16ee\	.	16e\	.	.
.	.	.	.	.	.	16dd\JJ	.	16d\JJ	.	.
!LO:TX:t=P:problem:mixed beam	!	!	!	!	!	!	!	!	!	!
8A\L	.	.	.	16a/LL	.	16cc#\LL	.	16c#\LL	.	.
.	.	.	.	16b/J	.	16dd\J	.	16d\J	.	.
8AA/	.	.	.	8cc#/J	.	8ee\J	.	8e\J	.	.
8AA/	.	.	.	16cc#\LL	.	16ee\LL	.	16e\LL	.	.
.	.	.	.	16dd\	.	16ff#\	.	16f#\	.	.
8AA/J	.	.	.	16b\	.	16dd\	.	16d\	.	.
.	.	.	.	16a\JJ	.	16cc#\JJ	.	16c#\JJ	.	.
=34	=34	=34	=34	=34	=34	=34	=34	=34	=34	=34
8AA/L	6 4	.	1ryy	16b\LL	.	16dd\LL	.	16d\LL	.	1ryy
.	.	.	.	16cc#\J	.	16ee\J	.	16e\J	.	.
8AA/	.	.	.	8dd\J	.	8ff#\J	.	8f#\J	.	.
8AA/	.	.	.	16dd\LL	.	16ff#\LL	.	16f#\LL	.	.
.	.	.	.	16ee\	.	16gg\	.	16g\	.	.
!	!	!	!	!	!	!	!	!LO:N:vis=32	!	!
8AA/J	.	.	.	16cc#\	.	16ee\	.	16f#\	.	.
.	.	.	.	16b\JJ	.	16dd\JJ	.	32e\L	.	.
.	.	.	.	.	.	.	.	32d\JJJ	.	.
8AA/L	.	.	.	16cc#\LL	.	16ee\LL	.	16e\LL	.	.
.	.	.	.	16dd\J	.	16ff#\J	.	16f#\J	.	.
8AA/	.	.	.	8ee\J	.	8gg\J	.	8g\J	.	.
8AA/	7	.	.	16ee\LL	.	16gg\LL	.	16g\LL	.	.
.	.	.	.	16ff#\	.	16aa\	.	16a\	.	.
8AA/J	.	.	.	16dd\	.	16ff#\	.	16f#\	.	.
.	.	.	.	16cc#\JJ	.	16ee\JJ	.	16e\JJ	.	.
=35	=35	=35	=35	=35	=35	=35	=35	=35	=35	=35
8D/L	.	.	1ryy	(16dd\LL	.	16ff#\LL	.	16f#\LL	.	1ryy
.	.	.	.	16ee\J	.	16gg\J	.	16g\J	.	.
8D/	.	.	.	8ff#\J)	.	8aa\J	.	8a\J	.	.
8D/	.	.	.	16ff#\LL	.	16aa\LL	.	16a\LL	.	.
.	.	.	.	16gg\	.	16bb\	.	16b\	.	.
8D/J	.	.	.	16ee\	.	16gg\	.	16g\	.	.
.	.	.	.	16dd\JJ	.	16ff#\JJ	.	16f#\JJ	.	.
8GG/L	.	.	.	16ee\LL	.	16gg\LL	.	16g\LL	.	.
.	.	.	.	16ff#\J	.	16aa\J	.	16a\J	.	.
8GG/	.	.	.	8gg\J	.	8bb\J	.	8b\J	.	.
8GG/	.	.	.	16gg\LL	.	16bb\LL	.	16b\LL	.	.
.	.	.	.	16ff#\	.	16aa\	.	16a\	.	.
8GG/J	.	.	.	16ee\	.	16gg\	.	16g\	.	.
.	.	.	.	16dd\JJ	.	16ff#\JJ	.	16f#\JJ	.	.
=36	=36	=36	=36	=36	=36	=36	=36	=36	=36	=36
8GG/L	.	.	1ryy	16cc#\LL	.	16ee\LL	.	16e\LL	.	1ryy
.	.	.	.	16dd\J	.	16ff#\J	.	16f#\J	.	.
8GG/	.	.	.	8ee\J	.	8gg\J	.	8g\J	.	.
8GG/	.	.	.	16ee\LL	.	16gg\LL	.	16g\LL	.	.
.	.	.	.	16dd\	.	16ff#\	.	16f#\	.	.
8GG/J	.	.	.	16cc#\	.	16ee\	.	16e\	.	.
.	.	.	.	16b\JJ	.	16dd\JJ	.	16d\JJ	.	.
!	!	!	!	!	!	!LO:LB:g=original	!	!	!	!
8AA/L	.	.	.	4a/	.	16cc#\LL	.	16c#/	.	.
.	.	.	.	.	.	16b\J	.	16B/	.	.
8AA/	.	.	.	.	.	8a\J	.	8A/	.	.
!	!	!	!	!	!	!	!	!LO:LB:g=original	!	!
8AA/	.	.	.	8r	.	8r	.	8r	.	.
!	!	!	!	!LO:LB:g=original	!	!	!	!	!	!
8AA/J	.	.	.	8ee\	.	8aa\	.	8a\	.	.
=37	=37	=37	=37	=37	=37	=37	=37	=37	=37	=37
!LO:TX:t=P:problem:mixed beam	!	!	!	!	!	!	!	!	!	!
8D\L	.	.	1ryy	8ff#\L	.	8aa\L	.	8a\	.	1ryy
8DD/J	.	.	.	16ee\L	.	16gg\L	.	16g\LL	.	.
.	.	.	.	16dd\JJ	.	16ff#\JJ	.	16f#\JJ	.	.
8r	.	.	.	8ee\L	.	8gg\L	.	8g\	.	.
!LO:LB:g=original	!	!	!	!	!	!	!	!	!	!
8D\	.	.	.	8ff#\J	.	8aa\J	.	8a\	.	.
8GG/L	.	.	.	8gg\L	.	4bb\	.	4b\	.	.
8GG/	.	.	.	8dd\	.	.	.	.	.	.
8GG/	.	.	.	8dd\	.	16bb\LL	.	16b\LL	.	.
.	.	.	.	.	.	16ddd\	.	16dd\	.	.
8GG/J	.	.	.	8dd\J	.	16ccc#\	.	16cc#\	.	.
.	.	.	.	.	.	16bb\JJ	.	16b\JJ	.	.
=38	=38	=38	=38	=38	=38	=38	=38	=38	=38	=38
!LO:TX:t=P:problem:mixed beam	!	!	!	!	!	!	!	!	!	!
8FF#/L	.	.	1ryy	8dd\L	.	4aa\	.	4a\	.	1ryy
8F#\	.	.	.	8dd\	.	.	.	.	.	.
8F#\	.	.	.	8dd\	.	16aa\LL	.	16a\LL	.	.
.	.	.	.	.	.	16ccc#\	.	16cc#\	.	.
8F#\J	.	.	.	8dd\J	.	16bb\	.	16b\	.	.
.	.	.	.	.	.	16aa\JJ	.	16a\JJ	.	.
8E\L	.	.	.	8b\L	.	4gg\	.	4g\	.	.
8E\	.	.	.	8b\	.	.	.	.	.	.
8C#\	.	.	.	8dd\	.	16gg\LL	.	16g\LL	.	.
.	.	.	.	.	.	16bbn\	.	16b\	.	.
8AA\J	.	.	.	8b\J	.	16aa\	.	16a\	.	.
.	.	.	.	.	.	16gg\JJ	.	16g\JJ	.	.
=39	=39	=39	=39	=39	=39	=39	=39	=39	=39	=39
8D/L	.	.	1ryy	8dd\L	.	16ff#\LL	.	8f#\L	.	1ryy
.	.	.	.	.	.	16gg\J	.	.	.	.
8D/	.	.	.	16ee\L	.	8aa\J	.	16g\L	.	.
.	.	.	.	16ff#\JJ	.	.	.	16a\JJ	.	.
!	!	!	!	!LO:TX:t=P:problem:mixed beam	!	!	!	!	!	!
8GG/	.	.	.	16gg\LL	.	16bb\LL	.	16b\LL	.	.
.	.	.	.	16b/	.	16aa\	.	16g\	.	.
8GG/J	.	.	.	16a/	.	16gg\	.	16f#\	.	.
.	.	.	.	16g/JJ	.	16ff#\JJ	.	16e\JJ	.	.
8AA/L	6 4	.	.	4dd\	.	4ff#\	.	4d\	.	.
8AA/	.	.	.	.	.	.	.	.	.	.
8AA/	3	.	.	4cc#\	.	4ee\	.	8.e\	.	.
8AA/J	.	.	.	.	.	.	.	.	.	.
.	.	.	.	.	.	.	.	16d\	.	.
=40	=40	=40	=40	=40	=40	=40	=40	=40	=40	=40
8D\L	.	.	1ryy	4dd\	.	4dd\	.	4d\	.	1ryy
8D\	.	.	.	.	.	.	.	.	.	.
8D\	.	.	.	8r	.	8r	.	8r	.	.
8D\J	.	.	.	8ff#\	.	8aa\	.	8a\	.	.
8E\L	.	.	.	8b\L	.	8gg#X\L	.	8g#X\L	.	.
8C#\	#	.	.	8ee\	.	8aa\	.	8a\J	.	.
8D\	6	.	.	8a\	.	8ff#\	.	8f#\L	.	.
8BB\J	.	.	.	8dd\J	.	8ggn\J	.	8gn\J	.	.
!	!	!	!	!	!	!	!	!LO:LB:g=original	!	!
=41	=41	=41	=41	=41	=41	=41	=41	=41	=41	=41
8C#/L	6	.	1ryy	8a/L	.	8ee\L	.	8e\L	.	1ryy
!	!	!	!	!	!	!LO:SIC:v:s=8ffn	!	!LO:SIC:v:s=8fn	!	!
8AA/	4	.	.	8a/	.	8ff-X\	.	8f-X\J	.	.
8BB/	6	.	.	8f#/	.	8dd\	.	8d\L	.	.
8GG/J	.	.	.	8b/J	.	8ee\J	.	8e\J	.	.
4AA/	.	.	.	8a\L	.	8cc#\L	.	8c#\L	.	.
.	.	.	.	16b\L	.	16dd\L	.	16d\L	.	.
.	.	.	.	16cc#\JJ	.	16ee\JJ	.	16e\JJ	.	.
!	!	!	!	!	!	!	!	!LO:SIC:v:s=8fn	!	!
8D/L	.	.	.	8dd\L	.	8ff#X\L	.	8f-\L	.	.
8GG/J	.	.	.	8ee\J	.	8gg\J	.	8g\J	.	.
!	!	!	!	!	!	!LO:LB:g=original	!	!	!	!
=42	=42	=42	=42	=42	=42	=42	=42	=42	=42	=42
!	!	!	!	!	!LO:DY:a:t=for&colon;	!	!	!	!	!
8AA/L	6 4	.	1ryy	4dd\	f	4ff#\	.	4f#\	.	1ryy
8AA/	x 3	.	.	.	.	.	.	.	.	.
!	!	!	!	!	!	!	!	!LO:N:vis=8	!	!
8AA/	.	.	.	4cc#\	.	4ee\	.	8.e\	.	.
8AA/J	.	.	.	.	.	.	.	.	.	.
.	.	.	.	.	.	.	.	16d\	.	.
4D/	.	.	.	4dd\	.	4dd\	.	4d\	.	.
!	!	!	!	!LO:LB:g=original	!	!	!	!	!	!
4DD/	.	.	.	8r	.	8r	.	4r	.	.
.	.	.	.	8a/	.	8a/	.	.	.	.
!LO:LB:g=original	!	!	!	!	!	!	!	!	!	!
=43	=43	=43	=43	=43	=43	=43	=43	=43	=43	=43
!	!	!	!	!	!	!	!LO:DY:a:t=for	!	!	!
8D\L	.	.	1ryy	8.dd\L	.	8.dd\L	f	00r	.	1ryy
8D\	.	.	.	.	.	.	.	.	.	.
.	.	.	.	16cc#\K	.	16ee\K	.	.	.	.
8D\	.	.	.	8.dd\	.	8.ff#\	.	.	.	.
8D\J	.	.	.	.	.	.	.	.	.	.
.	.	.	.	16ee\Jk	.	16gg\Jk	.	.	.	.
8D\L	.	.	.	8ff#\	.	8aa\	.	.	.	.
8D\	.	.	.	4ff#\	.	4aa\	.	.	.	.
8D\	6 4	.	.	.	.	.	.	.	.	.
8D\J	.	.	.	8gg\	.	8bb\	.	.	.	.
=44	=44	=44	=44	=44	=44	=44	=44	=44	=44	=44
8D\L	3	.	1ryy	24ff#\LL	.	24aa\LL	.	.	.	1ryy
.	.	.	.	24ee\	.	24gg\	.	.	.	.
.	.	.	.	24dd\JJ	.	24ff#\JJ	.	.	.	.
8D\	.	.	.	24dd\LL	.	24ff#\LL	.	.	.	.
.	.	.	.	24ee\	.	24gg\	.	.	.	.
.	.	.	.	24ff#\JJ	.	24aa\JJ	.	.	.	.
8D\	.	.	.	4ee\	.	4gg\	.	.	.	.
8C#X\J	5 3	.	.	.	.	.	.	.	.	.
8D\L	.	.	.	4dd\	.	4ff#\	.	.	.	.
8D\	.	.	.	.	.	.	.	.	.	.
8D\	.	.	.	4r	.	8r	.	.	.	.
8D\J	.	.	.	.	.	8ff#\	.	.	.	.
=45	=45	=45	=45	=45	=45	=45	=45	=45	=45	=45
8D/L	.	.	1ryy	4r	.	8aa\L	.	.	.	1ryy
8DD/J	.	.	.	.	.	8ff#\J	.	.	.	.
4r	.	.	.	8r	.	16dd\LL	.	.	.	.
.	.	.	.	.	.	16dd\	.	.	.	.
.	.	.	.	8dd\L	.	16ee\	.	.	.	.
.	.	.	.	.	.	16ff#\JJ	.	.	.	.
8r	.	.	.	8ee\	.	4.gg\	.	.	.	.
8A\L	.	.	.	8cc#\J	.	.	.	.	.	.
8c#\	.	.	.	16a\LL	.	.	.	.	.	.
.	.	.	.	16a\	.	.	.	.	.	.
8A\J	.	.	.	16b\	.	16ff#\LL	.	.	.	.
.	.	.	.	16cc#\JJ	.	16ee\JJ	.	.	.	.
=46	=46	=46	=46	=46	=46	=46	=46	=46	=46	=46
!LO:TX:t=P:problem:mixed beam	!	!	!	!	!	!	!	!	!	!
8d\L	.	.	1ryy	16dd\LL	.	16ff#\LL	.	.	.	1ryy
.	.	.	.	16cc#\	.	16ee\	.	.	.	.
8D/J	.	.	.	16dd\	.	16ff#\	.	.	.	.
.	.	.	.	16ee\JJ	.	16gg\JJ	.	.	.	.
8G#X\L	.	.	.	4dd\	.	4ff#\	.	.	.	.
8G#\J	7	.	.	.	.	.	.	.	.	.
4A\	.	.	.	4cc#\	.	4ee\	.	.	.	.
4AA/	.	.	.	16r	.	16r	.	.	.	.
.	.	.	.	16cc#\LL	.	16ee\LL	.	.	.	.
.	.	.	.	16a\	.	16cc#\	.	.	.	.
.	.	.	.	16b\JJ	.	16dd\JJ	.	.	.	.
=47	=47	=47	=47	=47	=47	=47	=47	=47	=47	=47
8AA/L	.	.	1ryy	16.cc#\LL	.	16.ee\LL	.	0r	.	1ryy
.	.	.	.	32dd\JJk	.	32ff#\K	.	.	.	.
!	!	!	!	!LO:LB:g=original	!	!	!	!	!	!
8AA/	.	.	.	16.a\LL	.	16.cc#\	.	.	.	.
.	.	.	.	32b\JJk	.	32dd\JJk	.	.	.	.
!	!	!	!	!	!	!LO:LB:g=original	!	!	!	!
8AA/	.	.	.	16.cc#\LL	.	16.ee\LL	.	.	.	.
.	.	.	.	32dd\K	.	32ff#\K	.	.	.	.
8AA/J	.	.	.	16.a\	.	16.cc#\	.	.	.	.
.	.	.	.	32b\JJk	.	32dd\JJk	.	.	.	.
8AA/L	.	.	.	16cc#\LL	.	16ee\LL	.	.	.	.
.	.	.	.	16dd\JJ	.	16ff#\JJ	.	.	.	.
8AA/	7	.	.	4ee\	.	4gg\	.	.	.	.
8AA/	.	.	.	.	.	.	.	.	.	.
8AA/J	.	.	.	8dd\	.	8ee\	.	.	.	.
=48	=48	=48	=48	=48	=48	=48	=48	=48	=48	=48
8D/L	.	.	1ryy	8dd\L	.	8ff#\L	.	.	.	1ryy
8GG/J	.	.	.	8b\J	.	8gg\J	.	.	.	.
!LO:LB:g=original	!	!	!	!	!	!	!	!	!	!
4AA/	.	.	.	4cc#\	.	4ee\	.	.	.	.
8D/L	.	.	.	4dd\	.	4.dd\	.	.	.	.
8D/	.	.	.	.	.	.	.	.	.	.
8D/	6 4	.	.	8r	.	.	.	.	.	.
8D/J	.	.	.	8g/	.	8b\	.	.	.	.
=49	=49	=49	=49	=49	=49	=49	=49	=49	=49	=49
8D\L	.	.	1ryy	16.f#/LL	.	16.a/LL	.	1r;;	.	1ryy
.	.	.	.	32g/K	.	32b/K	.	.	.	.
8D\	.	.	.	16.d/	.	16.f#/	.	.	.	.
.	.	.	.	32e/JJk	.	32g/JJk	.	.	.	.
8D\	.	.	.	16.f#/LL	.	16.a/LL	.	.	.	.
.	.	.	.	32g/K	.	32b/K	.	.	.	.
8D\J	.	.	.	16.d/	.	16.f#/	.	.	.	.
.	.	.	.	32e/JJk	.	32g/JJk	.	.	.	.
8D\L	5	.	.	8f#/	.	8a/	.	.	.	.
8C#\	.	.	.	4.e/	.	4.g/	.	.	.	.
8C#\	.	.	.	.	.	.	.	.	.	.
8AA\J	.	.	.	.	.	.	.	.	.	.
=50	=50||	=50||	=50||	=50||	=50||	=50||	=50||	=50||	=50||	=50||
4D\	.	.	1ryy	16.d/LL	.	16.g\LL	.	2r	.	1ryy
.	.	.	.	32e/K	.	32cc#\K	.	.	.	.
.	.	.	.	16.f#/	.	16.dd\	.	.	.	.
.	.	.	.	32g/JJk	.	32ee\JJk	.	.	.	.
!LO:TX:t=P:problem:mixed beam	!	!	!	!	!	!	!	!	!	!
8A\L	.	.	.	4e/	.	4cc#\	.	.	.	.
8AA/J	.	.	.	.	.	.	.	.	.	.
4D/	.	.	.	4d/	.	4dd;;\	.	4r	.	.
4DD/	.	.	.	8r;;	.	8r	.	8r	.	.
.	.	.	.	8dd\	.	8ff#\	.	8f#\	.	.
=51||;;	=51	=51	=51	=51	=51	=51	=51	=51	=51	=51
8BB/L	.	.	1ryy	8dd\	.	8bb\	.	4b\	.	1ryy
8BB/	.	.	.	4dd\	.	4ff#\	.	.	.	.
8BB/	.	.	.	.	.	.	.	4f#\	.	.
8BB/J	.	.	.	8dd\	.	8ff#\	.	.	.	.
!	!	!	!	!LO:LB:g=original	!	!	!	!	!	!
4BB/	.	.	.	16ee\LL	.	16bb\LL	.	8f#\	.	.
.	.	.	.	16ff#\JJ	.	16ccc#\JJ	.	.	.	.
.	.	.	.	4ff#\	.	4ddd\	.	16b\LL	.	.
.	.	.	.	.	.	.	.	16cc#\JJ	.	.
!	!	!	!	!	!	!	!	!LO:N:vis=4	!	!
8r	.	.	.	.	.	.	.	8dd\	.	.
8F#\	.	.	.	8ee\	.	8ccc#\	.	8cc#\	.	.
=52	=52	=52	=52	=52	=52	=52	=52	=52	=52	=52
8B\L	.	.	1ryy	8dd\L	.	8bb\L	.	8b\L	.	1ryy
8B\	.	.	.	8dd\	.	16aa\L	.	16a\L	.	.
.	.	.	.	.	.	16gg\JJ	.	16g\JJ	.	.
!	!	!	!	!	!	!LO:LB:g=original	!	!	!	!
8A#X\	6	.	.	8cc#\	.	8ff#\L	.	8f#\L	.	.
8A#\J	.	.	.	8cc#\J	.	8ee\J	.	8e\J	.	.
8B\L	.	.	.	16b\LL	.	16dd#X\LL	.	4d#X\	.	.
.	.	.	.	16cc#\JJ	.	16ee\	.	.	.	.
8B\	6 4	.	.	16dd#X\LL	.	16ff#\	.	.	.	.
.	.	.	.	16ee\JJ	.	16gg\JJ	.	.	.	.
8B\	.	.	.	16ff#\LL	.	16aa\LL	.	4r	.	.
.	.	.	.	16gg\	.	16bb\	.	.	.	.
8B\J	.	.	.	16ff#\	.	16aa\	.	.	.	.
.	.	.	.	16gg\JJ	.	16bb\JJ	.	.	.	.
!	!	!	!	!	!	!	!	!LO:LB:g=original	!	!
=53	=53	=53	=53	=53	=53	=53	=53	=53	=53	=53
!LO:TX:t=P:problem:mixed beam	!	!	!	!	!	!	!	!	!	!
8B\L	.	.	1ryy	16ff#\LL	.	16aa\LL	.	8r	.	1ryy
.	.	.	.	16ee\	.	16gg\	.	.	.	.
8BB/	.	.	.	16dd#X\	.	16ff#\	.	8f#\	.	.
.	.	.	.	16cc#\JJ	.	16ee\JJ	.	.	.	.
8BB/	.	.	.	8b\L	.	16dd#X\LL	.	8f#\	.	.
.	.	.	.	.	.	16ee\	.	.	.	.
8BB/J	.	.	.	8b\J	.	16dd#\	.	8b\	.	.
.	.	.	.	.	.	16ee\JJ	.	.	.	.
!LO:LB:g=original	!	!	!	!	!	!	!	!	!	!
8D#X\L	.	.	.	4b\	.	8ff#\	.	4f#\	.	.
8D#\	.	.	.	.	.	4bb\	.	.	.	.
8D#\	.	.	.	8r	.	.	.	4f#\	.	.
8D#\J	.	.	.	8b\	.	8ff#\	.	.	.	.
=54	=54	=54	=54	=54	=54	=54	=54	=54	=54	=54
4E\	.	.	1ryy	8b\L	.	16gg\LL	.	16g\LL	.	1ryy
.	.	.	.	.	.	16gg\JJ	.	16a\JJ	.	.
.	6	.	.	8gg\	.	4bb\	.	8b\	.	.
4D#X\	5	.	.	8ff#\	.	.	.	4a\	.	.
.	.	.	.	8ff#\J	.	8aa\	.	.	.	.
4E\	.	.	.	16ee\LL	.	16gg\LL	.	16g\LL	.	.
.	.	.	.	16ff#\JJ	.	16ff#\JJ	.	16f#\JJ	.	.
.	.	.	.	4gg\	.	4ee\	.	4e\	.	.
4B\	.	.	.	.	.	.	.	.	.	.
.	.	.	.	8ff#\	.	8ff#\	.	8f#\	.	.
=55	=55	=55	=55	=55	=55	=55	=55	=55	=55	=55
!	!	!	!	!	!	!	!	!LO:N:vis=8	!	!
8E\L	.	.	1ryy	4ee\	.	16gg\LL	.	16g\LL	.	1ryy
!	!	!	!	!	!	!	!	!LO:N:vis=8	!	!
.	.	.	.	.	.	16aa\	.	16a\	.	.
!	!	!	!	!	!	!	!	!LO:N:vis=8	!	!
8E\	6	.	.	.	.	16gg\	.	16g\	.	.
!	!	!	!	!	!	!	!	!LO:N:vis=8	!	!
.	.	.	.	.	.	16bb\JJ	.	16b\JJ	.	.
8C#\	.	.	.	16ee\LL	.	4aa\	.	4a\	.	.
.	.	.	.	16ff#\	.	.	.	.	.	.
8C#\J	.	.	.	16ee\	.	.	.	.	.	.
.	.	.	.	16gg\JJ	.	.	.	.	.	.
!	!	!	!	!	!	!	!	!LO:N:vis=8	!	!
8D\L	6	.	.	4ff#\	.	16gg\LL	.	16a\LL	.	.
!	!	!	!	!	!	!	!	!LO:N:vis=8	!	!
.	.	.	.	.	.	16bb\	.	16b\	.	.
!	!	!	!	!	!	!	!	!LO:N:vis=8	!	!
8D\	.	.	.	.	.	16aa\	.	16a\	.	.
!	!	!	!	!	!	!	!	!LO:N:vis=8	!	!
.	.	.	.	.	.	16ccc#\JJ	.	16cc#\JJ	.	.
8D#X\	.	.	.	16ff#\LL	.	4bb\	.	4b\	.	.
.	.	.	.	16gg\	.	.	.	.	.	.
8D#\J	.	.	.	16ff#\	.	.	.	.	.	.
.	.	.	.	16aa\JJ	.	.	.	.	.	.
!	!	!	!	!LO:LB:g=original	!	!	!	!	!	!
=56	=56	=56	=56	=56	=56	=56	=56	=56	=56	=56
*2\right	*	*	*	*	*	*	*	*	*	*
2E\	#	.	1ryy	4.gg\	.	16bb\LL	.	16b\LL	.	1ryy
.	.	.	.	.	.	16aa\	.	16a\	.	.
.	.	.	.	.	.	16gg\	.	16g\	.	.
.	.	.	.	.	.	16ff#\JJ	.	16f#\JJ	.	.
!	!	!	!	!	!	!LO:LB:g=original	!	!	!	!
.	.	.	.	.	.	8ee\L	.	8e\	.	.
.	.	.	.	8b/	.	8ff#X\	.	8f#\	.	.
!	!	!	!	!	!	!LO:SIC:v:s=8gg#	!	!	!	!
2D#X/	6 4 2	.	.	8b/L	.	8gg\	.	8g#X\	.	.
!	!	!	!	!	!	!LO:SIC:v:s=8gg#	!	!	!	!
.	.	.	.	8b/	.	8gg\J	.	8g#\	.	.
!	!	!	!	!	!	!LO:SIC:v:s=8gg#	!	!	!	!
.	.	.	.	8b/	.	8gg\L	.	8g#\	.	.
.	.	.	.	8b/J	.	16aa\L	.	16a\LL	.	.
.	.	.	.	.	.	16bb\JJ	.	16b\JJ	.	.
!	!	!	!	!	!	!	!	!LO:LB:g=original	!	!
=57	=57	=57	=57	=57	=57	=57	=57	=57	=57	=57
8C#/L	#	.	1ryy	16g#X/LL	.	16ee#X\LL	.	16e#X\LL	.	1ryy
.	.	.	.	16a/JJ	.	16ff#\JJ	.	16f#\JJ	.	.
8C#/	.	.	.	4b\	.	4gg#X\	.	4g#X\	.	.
8C#/	.	.	.	.	.	.	.	.	.	.
8C#/J	.	.	.	8ff#\	.	8aa\	.	8a\	.	.
8E#X\L	5	.	.	16gg#X\LL	.	4bb\	.	16b\LL	.	.
.	.	.	.	16gg#\JJ	.	.	.	16cc#\JJ	.	.
8E#\	2	.	.	4bb\	.	.	.	4dd\	.	.
!	!	!	!	!	!	!LO:N:vis=16	!	!	!	!
8E#\	6	.	.	.	.	8bb\L	.	.	.	.
!	!	!	!	!	!	!LO:N:vis=16	!	!	!	!
8E#\J	5	.	.	16aa\LL	.	8ccc#\J	.	16cc#\LL	.	.
.	.	.	.	16gg#\JJ	.	.	.	16b\JJ	.	.
=58	=58	=58	=58	=58	=58	=58	=58	=58	=58	=58
8F#\L	.	.	1ryy	8ff#\L	.	4ddd\	.	16a\LL	.	1ryy
.	.	.	.	.	.	.	.	16g#X\JJ	.	.
8F#\	.	.	.	8cc#\	.	.	.	4f#\	.	.
8F#\	.	.	.	8cc#\	.	16ccc#\LL	.	.	.	.
.	.	.	.	.	.	16bb\JJ	.	.	.	.
8F#\J	.	.	.	8ff#\J	.	16aa\LL	.	8cc#\	.	.
.	.	.	.	.	.	16gg#X\JJ	.	.	.	.
4BB/	.	.	.	8ff#\L	.	4ff#\	.	8dd\L	.	.
.	.	.	.	8dd\	.	.	.	8f#\J	.	.
8AA/L	6	.	.	8cc#\	.	8ccc#\L	.	8f#\L	.	.
8BB/J	.	.	.	8dd\J	.	8ddd\J	.	8b\J	.	.
!LO:LB:g=original	!	!	!	!	!	!	!	!	!	!
=59	=59	=59	=59	=59	=59	=59	=59	=59	=59	=59
8C#/L	.	.	1ryy	4cc#\	.	4.ff#\	.	4a\	.	1ryy
8C#/	6 4	.	.	.	.	.	.	.	.	.
!	!	!	!	!	!	!	!	!LO:N:vis=8	!	!
8C#/	.	.	.	4ee#X\	.	.	.	8.g#X\	.	.
8C#/J	#	.	.	.	.	8bb\	.	.	.	.
.	.	.	.	.	.	.	.	16f#\	.	.
!	!	!	!	!LO:TX:b:t=Da Capo	!	!	!	!	!	!
4FF#/	.	.	.	4ff#\	.	4aa\	.	4f#\	.	.
!	!	!	!	!	!	!	!	!LO:TX:b:t=Quæ sub his figuris veré latitas. Tibi se cor meum totum subijcit,\nQuia Te contemplans totum deficit.	!	!
!	!	!	!	!	!	!	!	!LO:TX:a:t=Dacapo	!	!
4r	.	.	.	4r	.	4gg#X\	.	4r	.	.
=60	=60	=60	=60	=60	=60	=60	=60	=60	=60	=60
!LO:TX:a:t=P:problem:brak taktu 60	!	!	!	!LO:TX:a:t=P:problem:brak taktu 60	!	!	!	!	!	!
1ryy	.	.	1ryy	1ryy	.	4ff#\	.	1r	.	1ryy
.	.	.	.	.	.	4r	.	.	.	.
!LO:TX:b:t=Da capo usg. ad signum finise	!	!	!	!	!	!LO:TX:b:t=Da Capo	!	!	!	!
.	.	.	.	.	.	2r	.	.	.	.
==	==	==	==	==	==	==	==	==	==	==
*-	*-	*-	*-	*-	*-	*-	*-	*-	*-	*-
!!!system-decoration: [(g1)][(g2)][(g3)]
!!!AIN: 1 alto 1 organ 1 viola 2 violn 1 vox
!!!ENC: Anna Matuszewska
!!!END: 2021-01-21
!!!ENC: Krzysztof Stępień
!!!END: 2020-12-07
